SF_Symbols/sparkles.rectangle.stack.svg

<?xml version="1.0" encoding="UTF-8"?>
<svg xmlns="http://www.w3.org/2000/svg" xmlns:xlink="http://www.w3.org/1999/xlink" width="24" height="24" viewBox="0 0 24 24" version="1.1">
<g id="surface1">
<path style=" stroke:none;fill-rule:nonzero;fill:rgb(100%,100%,100%);fill-opacity:1;" d="M 4.355469 24 L 19.636719 24 C 20.71875 24 21.535156 23.730469 22.082031 23.1875 C 22.632812 22.644531 22.90625 21.839844 22.90625 20.769531 L 22.90625 10.074219 C 22.90625 9.003906 22.632812 8.199219 22.082031 7.65625 C 21.535156 7.113281 20.71875 6.84375 19.636719 6.84375 L 4.355469 6.84375 C 3.265625 6.84375 2.445312 7.113281 1.894531 7.65625 C 1.355469 8.191406 1.082031 8.996094 1.082031 10.074219 L 1.082031 20.769531 C 1.082031 21.847656 1.355469 22.652344 1.894531 23.1875 C 2.445312 23.730469 3.265625 24 4.355469 24 Z M 4.375 22.324219 C 3.855469 22.324219 3.453125 22.183594 3.175781 21.90625 C 2.898438 21.628906 2.761719 21.21875 2.761719 20.675781 L 2.761719 10.167969 C 2.761719 9.625 2.898438 9.214844 3.175781 8.9375 C 3.453125 8.660156 3.855469 8.519531 4.375 8.519531 L 19.605469 8.519531 C 20.117188 8.519531 20.515625 8.660156 20.800781 8.9375 C 21.085938 9.214844 21.230469 9.625 21.230469 10.167969 L 21.230469 20.675781 C 21.230469 21.21875 21.085938 21.628906 20.800781 21.90625 C 20.515625 22.183594 20.117188 22.324219 19.605469 22.324219 Z M 3.28125 5.167969 L 20.71875 5.167969 C 20.636719 4.695312 20.46875 4.332031 20.21875 4.082031 C 19.976562 3.828125 19.59375 3.699219 19.074219 3.699219 L 4.925781 3.699219 C 4.40625 3.699219 4.019531 3.828125 3.769531 4.082031 C 3.519531 4.332031 3.359375 4.695312 3.28125 5.167969 Z M 5.425781 2.28125 L 18.574219 2.28125 C 18.539062 1.835938 18.390625 1.503906 18.136719 1.28125 C 17.886719 1.050781 17.519531 0.9375 17.042969 0.9375 L 6.949219 0.9375 C 6.46875 0.9375 6.101562 1.050781 5.84375 1.28125 C 5.59375 1.503906 5.453125 1.835938 5.425781 2.28125 Z M 12.511719 19.636719 C 12.703125 19.636719 12.828125 19.523438 12.886719 19.300781 C 12.996094 18.683594 13.109375 18.164062 13.21875 17.738281 C 13.328125 17.308594 13.46875 16.953125 13.636719 16.667969 C 13.800781 16.382812 14.015625 16.148438 14.28125 15.96875 C 14.550781 15.789062 14.898438 15.640625 15.324219 15.53125 C 15.753906 15.414062 16.289062 15.3125 16.925781 15.230469 C 17.15625 15.203125 17.269531 15.078125 17.269531 14.855469 C 17.269531 14.640625 17.15625 14.515625 16.925781 14.480469 C 16.289062 14.390625 15.753906 14.289062 15.324219 14.175781 C 14.890625 14.058594 14.539062 13.910156 14.261719 13.730469 C 13.984375 13.546875 13.757812 13.316406 13.582031 13.03125 C 13.417969 12.746094 13.28125 12.390625 13.175781 11.96875 C 13.074219 11.546875 12.976562 11.035156 12.886719 10.4375 C 12.84375 10.203125 12.71875 10.082031 12.511719 10.082031 C 12.296875 10.082031 12.164062 10.199219 12.113281 10.425781 C 12.003906 11.039062 11.890625 11.558594 11.769531 11.988281 C 11.660156 12.414062 11.519531 12.765625 11.355469 13.050781 C 11.195312 13.335938 10.980469 13.570312 10.707031 13.75 C 10.445312 13.921875 10.097656 14.066406 9.667969 14.175781 C 9.242188 14.289062 8.714844 14.390625 8.082031 14.480469 C 7.847656 14.515625 7.730469 14.640625 7.730469 14.855469 C 7.730469 15.070312 7.847656 15.195312 8.082031 15.230469 C 8.882812 15.3125 9.519531 15.429688 10 15.582031 C 10.484375 15.730469 10.859375 15.949219 11.125 16.238281 C 11.394531 16.523438 11.601562 16.914062 11.738281 17.40625 C 11.878906 17.898438 12.003906 18.527344 12.113281 19.292969 C 12.15625 19.519531 12.289062 19.636719 12.511719 19.636719 Z M 8.40625 21.324219 C 8.558594 21.324219 8.652344 21.246094 8.6875 21.09375 C 8.785156 20.585938 8.867188 20.21875 8.9375 19.988281 C 9.007812 19.761719 9.152344 19.601562 9.375 19.511719 C 9.597656 19.421875 9.984375 19.332031 10.53125 19.25 C 10.699219 19.230469 10.78125 19.136719 10.78125 18.96875 C 10.78125 18.800781 10.699219 18.707031 10.53125 18.6875 C 9.984375 18.589844 9.597656 18.496094 9.375 18.40625 C 9.152344 18.316406 9.007812 18.160156 8.9375 17.9375 C 8.867188 17.714844 8.785156 17.359375 8.6875 16.863281 C 8.652344 16.691406 8.558594 16.605469 8.40625 16.605469 C 8.253906 16.605469 8.15625 16.691406 8.113281 16.863281 C 8.015625 17.359375 7.933594 17.714844 7.863281 17.9375 C 7.800781 18.160156 7.660156 18.316406 7.4375 18.40625 C 7.222656 18.496094 6.835938 18.589844 6.28125 18.6875 C 6.121094 18.707031 6.042969 18.800781 6.042969 18.96875 C 6.042969 19.136719 6.128906 19.230469 6.300781 19.25 C 6.851562 19.332031 7.234375 19.421875 7.449219 19.511719 C 7.664062 19.601562 7.800781 19.761719 7.863281 19.988281 C 7.933594 20.210938 8.015625 20.570312 8.113281 21.0625 C 8.15625 21.234375 8.253906 21.324219 8.40625 21.324219 Z M 8.40625 21.324219 "/>
</g>
</svg>

<svg xmlns="http://www.w3.org/2000/svg" width="24" height="24"><path style="stroke:none;fill-rule:nonzero;fill:#fff;fill-opacity:1" d="M4.355 24h15.282c1.082 0 1.898-.27 2.445-.813.55-.542.824-1.347.824-2.417V10.074c0-1.07-.273-1.875-.824-2.418-.547-.543-1.363-.812-2.445-.812H4.355c-1.09 0-1.91.27-2.46.812-.54.535-.813 1.34-.813 2.418V20.77c0 1.078.273 1.882.813 2.418.55.542 1.37.812 2.46.812Zm.02-1.676c-.52 0-.922-.14-1.2-.418-.277-.277-.413-.687-.413-1.23V10.168c0-.543.136-.953.414-1.23.277-.278.68-.418 1.199-.418h15.23c.512 0 .91.14 1.196.418.285.277.43.687.43 1.23v10.508c0 .543-.145.953-.43 1.23-.285.278-.684.418-1.196.418ZM3.281 5.168H20.72c-.082-.473-.25-.836-.5-1.086-.242-.254-.625-.383-1.145-.383H4.926c-.52 0-.906.13-1.156.383-.25.25-.41.613-.489 1.086Zm2.145-2.887h13.148c-.035-.445-.183-.777-.437-1-.25-.23-.617-.343-1.094-.343H6.949c-.48 0-.847.113-1.105.343-.25.223-.39.555-.418 1Zm7.086 17.356c.191 0 .316-.114.375-.336.11-.617.222-1.137.332-1.563.11-.43.25-.785.418-1.07.16-.281.379-.52.644-.7.27-.179.617-.327 1.043-.437.43-.117.965-.219 1.602-.3.23-.028.344-.153.344-.376 0-.214-.114-.34-.344-.375-.54-.07-1.074-.171-1.602-.304-.433-.117-.785-.266-1.062-.446a2.234 2.234 0 0 1-.68-.699c-.164-.285-.3-.64-.406-1.062a18.24 18.24 0 0 1-.29-1.531c-.042-.235-.167-.356-.374-.356-.215 0-.348.117-.399.344-.11.613-.222 1.133-.343 1.562-.11.426-.25.778-.415 1.063-.16.285-.375.52-.648.699-.262.172-.61.316-1.039.426-.426.113-.953.215-1.586.304-.234.036-.352.16-.352.375s.118.34.352.375c.8.082 1.438.2 1.918.352.484.148.86.367 1.125.656.27.285.477.676.613 1.168.14.492.266 1.121.375 1.887.043.227.176.344.399.344Zm-4.106 1.687c.153 0 .246-.078.281-.23.067-.371.149-.742.25-1.106a.72.72 0 0 1 .438-.476c.223-.09.61-.18 1.156-.262.168-.02.25-.113.25-.281 0-.168-.082-.262-.25-.282-.547-.097-.933-.19-1.156-.28a.717.717 0 0 1-.438-.47c-.07-.222-.152-.578-.25-1.074-.035-.172-.128-.258-.28-.258-.153 0-.25.086-.294.258-.097.496-.18.852-.25 1.075a.684.684 0 0 1-.426.468c-.214.09-.601.184-1.156.282-.16.019-.238.113-.238.28 0 .169.086.262.258.282.55.082.933.172 1.148.262.215.09.352.25.414.476.07.223.153.582.25 1.075.043.171.14.261.293.261Zm0 0"/></svg>
